assets/images/bars.svg

<?xml version="1.0" encoding="UTF-8"?>
<svg width="27px" height="20px" viewBox="0 0 27 20" version="1.1" xmlns="http://www.w3.org/2000/svg" xmlns:xlink="http://www.w3.org/1999/xlink">
    <!-- Generator: Sketch 52.6 (67491) - http://www.bohemiancoding.com/sketch -->
    <title>Shape</title>
    <desc>Created with Sketch.</desc>
    <g id="Page-1" stroke="none" stroke-width="1" fill="none" fill-rule="evenodd">
        <g id="bars" fill="#FFFFFF" fill-rule="nonzero">
            <path d="M26.2767858,2.9787234 L0.723214283,2.9787234 C0.323819201,2.9787234 0,2.69292553 0,2.34042553 L0,0.63829787 C0,0.28579787 0.323819201,0 0.723214283,0 L26.2767858,0 C26.6761808,0 27,0.28579787 27,0.63829787 L27,2.34042553 C27,2.69292553 26.6761808,2.9787234 26.2767858,2.9787234 Z M26.2767858,11.4893617 L0.723214283,11.4893617 C0.323819201,11.4893617 0,11.2035638 0,10.8510638 L0,9.14893617 C0,8.79643617 0.323819201,8.5106383 0.723214283,8.5106383 L26.2767858,8.5106383 C26.6761808,8.5106383 27,8.79643617 27,9.14893617 L27,10.8510638 C27,11.2035638 26.6761808,11.4893617 26.2767858,11.4893617 Z M26.2767858,20 L0.723214283,20 C0.323819201,20 0,19.7142021 0,19.3617021 L0,17.6595745 C0,17.3070745 0.323819201,17.0212766 0.723214283,17.0212766 L26.2767858,17.0212766 C26.6761808,17.0212766 27,17.3070745 27,17.6595745 L27,19.3617021 C27,19.7142021 26.6761808,20 26.2767858,20 Z" id="Shape"></path>
        </g>
    </g>
</svg>

<svg xmlns="http://www.w3.org/2000/svg" width="27" height="20"><path fill="#FFF" d="M26.277 2.979H.723c-.4 0-.723-.286-.723-.639V.638C0 .286.324 0 .723 0h25.554c.4 0 .723.286.723.638V2.34c0 .353-.324.639-.723.639m0 8.51H.723c-.4 0-.723-.285-.723-.638V9.15c0-.353.324-.638.723-.638h25.554c.4 0 .723.285.723.638v1.702c0 .353-.324.638-.723.638m0 8.511H.723c-.4 0-.723-.286-.723-.638V17.66c0-.353.324-.639.723-.639h25.554c.4 0 .723.286.723.639v1.702c0 .352-.324.638-.723.638"/></svg>
